!!!COM:	Compere, Loyset
!!!CDT:	~1445///-1518/08/16
!!!OTL:	Se mieulx ne vient d'amours peu me contente
!!!AGN:	Song; Chanson
!!!SCT:	Com3035
!!!SCA:	Com3035
!!!voices:	3
**kern	**kern	**kern
*staff3	*staff2	*staff1
*Ivox	*Ivox	*Ivox
*I"Bassus	*I"Tenor	*I"Superius
*I'B	*I'T	*I'S
*clefF4	*clefGv2	*clefG2
*k[]	*k[]	*k[]
*M2/1	*M2/1	*M2/1
*met(C|)	*met(C|)	*met(C|)
=1-	=1-	=1-
0r	0r	1d
.	.	[1g
=2	=2	=2
1r	1G	1g]
1C	[1c	1g
=3	=3	=3
1F	1c]	1a
1A	1c	1cc
=4	=4	=4
0G	1d	1.b
.	1e	.
.	.	4a
.	.	4g
=5	=5	=5
1F	0f	1a
1D	.	1a
=6	=6	=6
1E	1.e	1g
1A	.	[1cc
.	4d	.
.	4c	.
=7	=7	=7
0G	1d	2cc]
.	.	4b
.	.	4a
.	1d	4b
.	.	4a
.	.	4g
.	.	4f
=8	=8	=8
0C	2c	0e
.	2.c	.
.	4d	.
.	4e	.
.	8dL	.
.	8eJ	.
=9	=9	=9
1D	1f	2r
.	.	2d
2.C	1e	[1g
4D	.	.
=10	=10	=10
4E	4e	2g]
8DL	4d	.
8EJ	.	.
1F	4c	2.a
.	4B	.
.	2c	.
.	.	4g
[2D	2d	4f
.	.	4e
=11	=11	=11
4D]	0A	1f
4E	.	.
4F	.	.
4G	.	.
4A	.	2e
4B	.	.
4c	.	[2a
8BL	.	.
8cJ	.	.
=12	=12	=12
2d	0B	2a]
2D	.	4g#i
.	.	4f#i
1E	.	1g#i
=13	=13	=13
1AA	0A	[0a
1r	.	.
=14	=14	=14
1.A	1r	0a]
.	1A	.
[2c	.	.
=15	=15	=15
4c]	1A	1r
4B	.	.
4A	.	.
4G	.	.
1F	1A	1cc
=16	=16	=16
1r	1G	1b
1G	1G	1b
=17	=17	=17
1F	0c	1a
1E	.	1g
=18	=18	=18
[0A	1c	0cc
.	[1e	.
=19	=19	=19
1A]	1e]	1cc
[1G	1e	[1b
=20	=20	=20
0G]	1d	1b]
.	2r	1b
.	[2G	.
=21	=21	=21
1d	2G]	1a
.	2F	.
2G	2E	2g
[2c	[2F	[2a
=22	=22	=22
4c]	2F]	2a]
4A	.	.
2B	4E	4g
.	4D	4f
2.c	1C	1e
8BL	.	.
8AJ	.	.
=23	=23	=23
2G	1r	1g
4F	.	.
4E	.	.
1F	1c	1a
=24	=24	=24
1F	1d	1a
1E	2.e	[1g
.	4d	.
=25	=25	=25
2r	4c	2g]
.	4B	.
1D	2.d	2.f
.	4c	4e
2E	[2c	4d
.	.	4c
=26	=26	=26
2F	2c]	1d
2G	2B	.
2C	[1c	[1c
[2F	.	.
=27	=27	=27
4F]	0c_	1c]
4E	.	.
2.A	.	.
.	.	1r
4G	.	.
4F	.	.
4E	.	.
=28	=28	=28
2.F	1c]	1cc
4E	.	.
[1G	1r	1b
=29	=29	=29
1G]	1r	1b
1F	[1f	1a
=30	=30	=30
1D	1f]	1a
2E	1e	1g
[2C	.	.
=31	=31	=31
4C]	1e	1cc
4D	.	.
4E	.	.
4F	.	.
2G	1d	2b
2F	.	[2a
=32	=32	=32
1D	1d	2a]
.	.	4g
.	.	4f
1A	1c	1e
=33	=33	=33
2.D	1d	2r
.	.	2.d
4E	.	.
4F	2r	.
4G	.	4e
[2A	[2D	4f
.	.	4g
=34	=34	=34
4A]	4D]	1a
4G	4E	.
4F	4F	.
4E	4G	.
2F	1A	4a
.	.	4g
[2D	.	4f
.	.	4e
=35	=35	=35
2D]	4A	2f
.	4B	.
2C	4c	2e
.	8BL	.
.	8cJ	.
2G	2d	2d
4F	2G	[2g
4E	.	.
=36	=36	=36
1D	1A	2g]
.	.	2f#i
2r	[1G	[1g
[2d	.	.
=37	=37	=37
4d]	1G]	0g_
4c	.	.
4B	.	.
4A	.	.
2B	1r	.
[2G	.	.
=38	=38	=38
4G]	1G	1g]
4F	.	.
4E	.	.
4D	.	.
2E	[1c	1r
2C	.	.
=39	=39	=39
2r	0c_	1g
2C	.	.
1F	.	1a
=40	=40	=40
2E	1c]	2g
1F	.	1a
.	1r	.
4E	.	4g
4D	.	4f
=41	=41	=41
1C	1c	[0e
1r	1c	.
=42	=42	=42
1C	4c	1e]
.	4d	.
.	4e	.
.	8dL	.
.	8eJ	.
1BB-	[1f	1d
=43	=43	=43
1BB-i	2f]	1d
.	4e	.
.	4d	.
1C	1e	1g
=44	=44	=44
1C	4e	1g
.	4d	.
.	4c	.
.	4B	.
1r	1A	[1cc
=45	=45	=45
1F	1A	2cc]
.	.	4b
.	.	4a
1E	4G	1b
.	4A	.
.	4B	.
.	4c	.
=46	=46	=46
1D	4d	2a
.	4e	.
.	2f	2.dd
2G	2e	.
.	.	4cc
2A	4d	[2cc
.	4c	.
=47	=47	=47
1G	1d	2cc]
.	.	2b
2.C	[1c	[1cc
4D	.	.
=48	=48	=48
2E	1c]	2cc]
1F	.	4b
.	.	4a
.	1r	2a
4E	.	4g
4D	.	4f
=49	=49	=49
0C	0c	1e
.	.	1r
=50	=50	=50
1C	1c	1e
1C	1c	1e
=51	=51	=51
1C	1c	1e
1G	[1d	1d
=52	=52	=52
2D	1d]	2r
2F	.	2.a
2G	2.B	.
.	.	4g
2E	.	[2g
.	4G	.
=53	=53	=53
1D	1A	2g]
.	.	2f#i
1r	1G	[1g
=54	=54	=54
1G	1r	1g]
1E	1G	1r
=55	=55	=55
1C	0c	1g
[1F	.	1a
=56	=56	=56
1F]	1c	1a
1E	1e	2g
.	.	4a
.	.	4b
=57	=57	=57
1C	1e	1cc
2G	1d	2b
2F	.	[2a
=58	=58	=58
4D	1d	2a]
4E	.	.
4F	.	4g
4G	.	4f
4A	2.c	1e
4B	.	.
4c	.	.
8BL	8BL	.
8cJ	8AJ	.
=59	=59	=59
1d	1G	2r
.	.	2.g
2.G	2r	.
.	.	4a
.	[2G	4b
4A	.	4cc
=60	=60	=60
4B	4G]	1dd
4c	4A	.
2d	4B	.
.	4c	.
1D	4d	4dd
.	4e	4cc
.	2f	4b
.	.	4a
=61	=61	=61
2A	2.e	2cc
2E	.	1b
.	4d	.
2F	2c	.
2D	2d	[2a
=62	=62	=62
1E	1B	2a]
.	.	2g#i
1AAl	1Al	1al
==	==	==
*-	*-	*-
!!!RDF**kern: l=long note in original notation
!!!RDF**kern: i=editorial accidental
!!!ENC:	Megan K. Eagen 2013/12/01
!!!END:	2013/12/01/
!!!EED:	Jesse Rodin
!!!EEV:	2014/02/23/
!!!ONB:	Translated from MusicXML and edited on 2014/02/23/ by Craig Sapp
!!muse2ps: C^@{COM}^i2I150v95,95,150Q16
